public/img/icons/router-icon.svg

<svg fill="none" height="56" viewBox="0 0 56 56" width="56" xmlns="http://www.w3.org/2000/svg"><path d="m3 47h50v4c0 1.1046-.8954 2-2 2h-46c-1.10457 0-2-.8954-2-2z" fill="#ababab" stroke="#202028" stroke-linejoin="round"/><path d="m1 38c0-1.1046.89543-2 2-2h35 15c1.1046 0 2 .8954 2 2v8c0 1.1046-.8954 2-2 2h-15-35c-1.10457 0-2-.8954-2-2z" fill="#fff"/><path d="m38 36h-35c-1.10457 0-2 .8954-2 2v8c0 1.1046.89543 2 2 2h35m0-12h15c1.1046 0 2 .8954 2 2v8c0 1.1046-.8954 2-2 2h-15m0-12v12" stroke="#202028"/><g fill="#202028"><path d="m3 48h50v3h-50z"/><path d="m6 53h8v2c0 .5523-.4477 1-1 1h-6c-.55228 0-1-.4477-1-1z"/><path d="m42 53h8v2c0 .5523-.4477 1-1 1h-6c-.5523 0-1-.4477-1-1z"/><path d="m16 40c0-.5523.4477-1 1-1h6c.5523 0 1 .4477 1 1v2c0 .5523-.4477 1-1 1-.5523 0-1 .4477-1 1 0 .5523-.4477 1-1 1h-2c-.5523 0-1-.4477-1-1 0-.5523-.4477-1-1-1-.5523 0-1-.4477-1-1z"/><path d="m26 40c0-.5523.4477-1 1-1h6c.5523 0 1 .4477 1 1v2c0 .5523-.4477 1-1 1-.5523 0-1 .4477-1 1 0 .5523-.4477 1-1 1h-2c-.5523 0-1-.4477-1-1 0-.5523-.4477-1-1-1-.5523 0-1-.4477-1-1z"/><path d="m42 40c0-.5523.4477-1 1-1h6c.5523 0 1 .4477 1 1v2c0 .5523-.4477 1-1 1-.5523 0-1 .4477-1 1 0 .5523-.4477 1-1 1h-2c-.5523 0-1-.4477-1-1 0-.5523-.4477-1-1-1-.5523 0-1-.4477-1-1z"/></g><path d="m7 1h6v8h-6z" fill="#ababab" stroke="#202028" stroke-linejoin="round"/><path d="m7 9h6v33c0 1.1046-.8954 2-2 2h-2c-1.10457 0-2-.8954-2-2z" fill="#fff" stroke="#202028"/></svg>

<svg width="56" height="56" viewBox="0 0 56 56" fill="none" xmlns="http://www.w3.org/2000/svg">
<path d="M3 47H53V51C53 52.1046 52.1046 53 51 53H5C3.89543 53 3 52.1046 3 51V47Z" fill="#ABABAB" stroke="#202028" stroke-linejoin="round"/>
<path d="M1 38C1 36.8954 1.89543 36 3 36H38H53C54.1046 36 55 36.8954 55 38V46C55 47.1046 54.1046 48 53 48H38H3C1.89543 48 1 47.1046 1 46V38Z" fill="white"/>
<path d="M38 36H3C1.89543 36 1 36.8954 1 38V46C1 47.1046 1.89543 48 3 48H38M38 36H53C54.1046 36 55 36.8954 55 38V46C55 47.1046 54.1046 48 53 48H38M38 36V48" stroke="#202028"/>
<rect x="3" y="48" width="50" height="3" fill="#202028"/>
<path d="M6 53H14V55C14 55.5523 13.5523 56 13 56H7C6.44772 56 6 55.5523 6 55V53Z" fill="#202028"/>
<path d="M42 53H50V55C50 55.5523 49.5523 56 49 56H43C42.4477 56 42 55.5523 42 55V53Z" fill="#202028"/>
<path d="M16 40C16 39.4477 16.4477 39 17 39H23C23.5523 39 24 39.4477 24 40V42C24 42.5523 23.5523 43 23 43V43C22.4477 43 22 43.4477 22 44V44C22 44.5523 21.5523 45 21 45H19C18.4477 45 18 44.5523 18 44V44C18 43.4477 17.5523 43 17 43V43C16.4477 43 16 42.5523 16 42V40Z" fill="#202028"/>
<path d="M26 40C26 39.4477 26.4477 39 27 39H33C33.5523 39 34 39.4477 34 40V42C34 42.5523 33.5523 43 33 43V43C32.4477 43 32 43.4477 32 44V44C32 44.5523 31.5523 45 31 45H29C28.4477 45 28 44.5523 28 44V44C28 43.4477 27.5523 43 27 43V43C26.4477 43 26 42.5523 26 42V40Z" fill="#202028"/>
<path d="M42 40C42 39.4477 42.4477 39 43 39H49C49.5523 39 50 39.4477 50 40V42C50 42.5523 49.5523 43 49 43V43C48.4477 43 48 43.4477 48 44V44C48 44.5523 47.5523 45 47 45H45C44.4477 45 44 44.5523 44 44V44C44 43.4477 43.5523 43 43 43V43C42.4477 43 42 42.5523 42 42V40Z" fill="#202028"/>
<rect x="7" y="1" width="6" height="8" fill="#ABABAB" stroke="#202028" stroke-linejoin="round"/>
<path d="M7 9H13V42C13 43.1046 12.1046 44 11 44H9C7.89543 44 7 43.1046 7 42V9Z" fill="white" stroke="#202028"/>
</svg>
